X: 23474
T: Leverette, The
R: hornpipe
M: 4/4
K: Dmajor
|:A/B/c|"D"dA{c} "G"BA J"B"F2 FE|"D"DE ((3F"F#"ED) "G"B,EDB,|"D"~A,3B, "F#"DE"B"FA|"E"GFED "A"~E2 (3DE=F|
"A/F#"FDdD "G/A"~c2 BA|"A/D"~F2ED "E/G"B,EDB,|"D"A,B,"D"DE "A"FA"A"GE|"A"~F2D2"D"D2:|
|:(3DFA|"G/E"B2 {cB}AB "G/A"c2BA|"A/F#"FEDF J"A/G"A2FE|"D"DE"A/F#"FA "G/E"BedB|"A"~c2A2"A"A3"B"B|
"C"=c"B"B"A"A"F#"F ~"G"G2 AF|"D"DE ((3FED) "E/G"B,EDB,|"D"A,B,"D"DE "A"FA"A"GE|"A"~F2D2"D"D2:|

